X: 35427
T: Route Planning
R: jig
M: 6/8
K: Bminor
|:f2 d Bfd|fdf gfe|ffd Bfd|ecA cde|
f2 d Bfd|fdf gag|ffd Bfd|edc B2 e:|
|:fbf ggf|eae ffe|dgd eed|cde fab|
fbf ggf|eae ffe|dgd eed|cde dcB:|

